svg/fluentui-system-icons/ic_fluent_mic_48_filled.svg

<svg width="48" height="48" viewBox="0 0 48 48" fill="none" xmlns="http://www.w3.org/2000/svg">
<path d="M24 4C19.5817 4 16 7.58172 16 12V24C16 28.4183 19.5817 32 24 32C28.4183 32 32 28.4183 32 24V12C32 7.58172 28.4183 4 24 4ZM25 37.7148C32.2653 37.2021 38 31.1458 38 23.75C38 23.0596 37.4404 22.5 36.75 22.5C36.0596 22.5 35.5 23.0596 35.5 23.75C35.5 30.1013 30.3513 35.25 24 35.25C17.6487 35.25 12.5 30.1013 12.5 23.75C12.5 23.0596 11.9404 22.5 11.25 22.5C10.5596 22.5 10 23.0596 10 23.75C10 30.9752 15.4734 36.9221 22.5 37.6706V42.75C22.5 43.4404 23.0596 44 23.75 44C24.4404 44 25 43.4404 25 42.75V37.7148Z" fill="#212121"/>
</svg>

<svg xmlns="http://www.w3.org/2000/svg" width="48" height="48"><path d="M24 4a8 8 0 0 0-8 8v12a8 8 0 1 0 16 0V12a8 8 0 0 0-8-8Zm1 33.715c7.265-.513 13-6.57 13-13.965a1.25 1.25 0 1 0-2.5 0c0 6.351-5.149 11.5-11.5 11.5s-11.5-5.149-11.5-11.5a1.25 1.25 0 1 0-2.5 0c0 7.225 5.473 13.172 12.5 13.92v5.08a1.25 1.25 0 1 0 2.5 0v-5.035Z"/></svg>
